X: 1
T: the Pleasures of May
C: Vince O'Donnell
R: jig
Z: 2006 John Chambers <jc:trillian.mit.edu>
M: 6/8
L: 1/8
K: D
   F2G \
| "D"ABA f2d | "G"G3     e2d | "A7"dcB     BAG |  "D"FAA "A7"EAA \
| "D"DFA dfd | "G"c2B    dcB | "A7"AGF     EDC |  "D"D3 :|
|: f2g \
| "D"aba fdf | "G"B3     gfg | "A7"ecA     Ace | "E7"ba^g "A7"af=g \
| "D"aba fdf | "G"Bgg "D"Aff | "Em"GBe "A7"cBc |  "D"d3 :|
